material/.icons/material/home-circle.svg

<svg xmlns="http://www.w3.org/2000/svg" viewBox="0 0 24 24"><path d="M19.07 4.93C17.22 3 14.66 1.96 12 2c-2.66-.04-5.21 1-7.06 2.93C3 6.78 1.96 9.34 2 12c-.04 2.66 1 5.21 2.93 7.06C6.78 21 9.34 22.04 12 22c2.66.04 5.21-1 7.06-2.93C21 17.22 22.04 14.66 22 12c.04-2.66-1-5.22-2.93-7.07M17 12v6h-3.5v-5h-3v5H7v-6H5l7-7 7.5 7H17z"/></svg>

<?xml version="1.0" encoding="UTF-8"?><!DOCTYPE svg PUBLIC "-//W3C//DTD SVG 1.1//EN" "http://www.w3.org/Graphics/SVG/1.1/DTD/svg11.dtd"><svg xmlns="http://www.w3.org/2000/svg" xmlns:xlink="http://www.w3.org/1999/xlink" version="1.1" id="mdi-home-circle" width="24" height="24" viewBox="0 0 24 24"><path d="M19.07,4.93C17.22,3 14.66,1.96 12,2C9.34,1.96 6.79,3 4.94,4.93C3,6.78 1.96,9.34 2,12C1.96,14.66 3,17.21 4.93,19.06C6.78,21 9.34,22.04 12,22C14.66,22.04 17.21,21 19.06,19.07C21,17.22 22.04,14.66 22,12C22.04,9.34 21,6.78 19.07,4.93M17,12V18H13.5V13H10.5V18H7V12H5L12,5L19.5,12H17Z" /></svg>
